preferences/22/preferences-security-apparmor.svg

<svg width="22" height="22" version="1.1" viewBox="0 0 22 22" xmlns="http://www.w3.org/2000/svg" xmlns:xlink="http://www.w3.org/1999/xlink">
<defs>
<linearGradient id="linearGradient3403" x1="6.9492" x2="11.215" y1="4.5549" y2="59.052" gradientUnits="userSpaceOnUse">
<stop style="stop-color:#32373c" offset="0"/>
<stop style="stop-color:#1a1a1a" offset=".36805"/>
<stop style="stop-color:#31363b" offset="1"/>
</linearGradient>
<linearGradient id="linearGradient20558" x1="25.802" x2="25.111" y1="20.374" y2="58.913" gradientUnits="userSpaceOnUse">
<stop style="stop-color:#3d3d3d" offset="0"/>
<stop offset=".61772"/>
<stop style="stop-color:#3d3d3d" offset="1"/>
</linearGradient>
<linearGradient id="linearGradient4557" x1="43.5" x2="44.142" y1="64.012" y2=".30621" gradientTransform="translate(.36068 -.13017)" gradientUnits="userSpaceOnUse">
<stop style="stop-color:#141618" offset="0"/>
<stop style="stop-color:#686868" offset=".51821"/>
<stop style="stop-color:#31363b" offset="1"/>
</linearGradient>
<linearGradient id="linearGradient919" x1="7.4006" x2="33.063" y1="41.743" y2="7.1074" gradientTransform="matrix(.43999 0 0 .43999 .42408 .3543)" gradientUnits="userSpaceOnUse">
<stop style="stop-opacity:.99608" offset="0"/>
<stop style="stop-color:#353a3f;stop-opacity:.99608" offset="1"/>
</linearGradient>
<linearGradient id="d" x1="16" x2="16" y1="30" y2="2" gradientUnits="userSpaceOnUse">
<stop stop-color="#173f4f" offset="0"/>
<stop stop-color="#2f5361" offset="1"/>
</linearGradient>
<linearGradient id="e" x1="21.923" x2="23.538" y1="22.462" y2="24.077" gradientUnits="userSpaceOnUse" xlink:href="#a"/>
<linearGradient id="a">
<stop stop-color="#292c2f" offset="0"/>
<stop stop-opacity="0" offset="1"/>
</linearGradient>
<linearGradient id="f" x1="28.385" x2="28.385" y1="27.846" y2="3.615" gradientUnits="userSpaceOnUse" xlink:href="#c"/>
<linearGradient id="c">
<stop stop-color="#bf4231" offset="0"/>
<stop stop-color="#e05e4c" offset="1"/>
</linearGradient>
<linearGradient id="g" x1="28.385" x2="28.385" y1="27.846" y2="3.615" gradientUnits="userSpaceOnUse" xlink:href="#b"/>
<linearGradient id="b">
<stop stop-color="#eff0f1" offset="0"/>
<stop stop-color="#fcfcfc" offset="1"/>
</linearGradient>
<linearGradient id="h" x1="9.538" x2="23" y1="10.615" y2="24.077" gradientUnits="userSpaceOnUse" xlink:href="#a"/>
<linearGradient id="i" x1="12.769" x2="25.692" y1="7.385" y2="20.308" gradientUnits="userSpaceOnUse" xlink:href="#a"/>
<linearGradient id="j" x1="32" x2="32" y1="54" y2="9" gradientUnits="userSpaceOnUse" xlink:href="#b"/>
<linearGradient id="k" x1="32" x2="32" y1="54" y2="9" gradientUnits="userSpaceOnUse" xlink:href="#c"/>
<linearGradient id="l" x1="37" x2="37" y1="46" y2="38" gradientUnits="userSpaceOnUse">
<stop stop-color="#be4434" offset="0"/>
<stop stop-color="#c44837" offset=".25"/>
<stop stop-color="#cb4c3b" offset="1"/>
</linearGradient>
<linearGradient id="m" x1="20.308" x2="24.077" y1="19.231" y2="23" gradientUnits="userSpaceOnUse" xlink:href="#a"/>
</defs>
<rect x="1.8157" y="1.6824" width="18.517" height="18.793" ry="0" style="fill-rule:evenodd;fill:url(#linearGradient919)"/>
<g transform="matrix(.6679 0 0 .6679 2.77 -.0052555)">
<path d="m16 2c-3.41 1.806-6.82 2.544-10.23 3.23v13.463c0 3.77 5.526 8.918 10.23 11.307 4.704-2.389 10.23-7.537 10.23-11.307v-13.462c-3.41-0.687-6.82-1.425-10.23-3.231z" fill="url(#d)" style="fill:url(#d)"/>
<g stroke-width=".538">
<path d="m24.615 6.308-14.164 17.395 6.036 6.035c4.59-2.485 9.744-7.404 9.744-11.045v-10.77z" fill="url(#e)" opacity=".2" style="fill:url(#e)"/>
<path d="m20.752 5.419-9.487 18.974c1.473 1.373 3.127 2.636 4.735 3.453 3.98-2.021 8.615-6.503 8.615-9.692v-11.846a61.098 61.098 0 0 1-3.863-0.889z" fill="url(#f)" style="fill:url(#f)"/>
<path d="m16 3.615c-2.886 1.529-5.73 2.112-8.615 2.693v11.846c0 1.9 1.707 4.215 3.88 6.24l9.487-18.975c-1.58-0.426-3.16-0.96-4.752-1.804z" fill="url(#g)" style="fill:url(#g)"/>
<path d="m11.692 6.308-4.307 8.615 11.273 11.273a22.917 22.917 0 0 0 2.348-1.96l-0.698-0.698-3.77-7.538z" fill="url(#h)" opacity=".2" style="fill:url(#h)"/>
<path d="m13.846 6.308 6.462 17.23 4.307-8.615h-2.153z" fill="url(#i)" opacity=".2" style="fill:url(#i)"/>
</g>
<g stroke-width="1.857">
<path transform="matrix(.53846 0 0 .53846 -1.23 -1.23)" d="m24 14 16 32 8-16h-4l-1 2h-6l-9-18zm14 20h4l-2 4z" fill="url(#j)" style="fill:url(#j)"/>
<path transform="matrix(.53846 0 0 .53846 -1.23 -1.23)" d="m24 14-8 16h4l1-2h6l8.5 17h4zm0 8 2 4h-4z" fill="url(#k)" style="fill:url(#k)"/>
<path transform="matrix(.53846 0 0 .53846 -1.23 -1.23)" d="m32 38 4 8h4l-4-8z" fill="url(#l)" style="fill:url(#l)"/>
</g>
<path d="m24.615 14.923-4.307 8.615 1.947 1.948c2.161-2.093 3.78-4.428 3.959-6.428a4.38 4.38 0 0 0 0.017-0.365v-2.155z" fill="url(#m)" opacity=".2" style="fill:url(#m)"/>
<path d="m5.77 17.693v1c0 3.77 5.526 8.918 10.23 11.307 4.704-2.389 10.23-7.537 10.23-11.307v-1c0 3.77-5.526 8.918-10.23 11.307-4.704-2.389-10.23-7.537-10.23-11.307z" fill="#232629" opacity=".2"/>
</g>
<path transform="matrix(.33082 0 0 .33082 .46795 .36525)" d="m4.7043 3.9815-0.012938 56.82h53.904l1.0222-2.8664s-23.875 0.76639-32.844-4.1404c-10.516-5.7529-15.372-49.697-15.372-49.697z" style="fill:url(#linearGradient3403);mix-blend-mode:normal;stroke-linejoin:round;stroke-width:1.1624;stroke:url(#linearGradient20558)"/>
<rect transform="matrix(.3099 0 0 .30927 1.0238 1.0337)" x="1.0324" y=".59551" width="62.567" height="62.867" rx="5.803" ry="6.2447" style="fill:none;stroke-linejoin:round;stroke-miterlimit:7.8;stroke-opacity:.99515;stroke-width:3.7137;stroke:url(#linearGradient4557)"/>
</svg>

<?xml version="1.0" encoding="UTF-8" standalone="no"?>
<!-- Created with Inkscape (http://www.inkscape.org/) -->

<svg
   width="22"
   height="22"
   version="1.1"
   viewBox="0 0 22 22"
   id="svg22"
   sodipodi:docname="preferences-security-apparmor.svg"
   inkscape:version="1.1.2 (0a00cf5339, 2022-02-04)"
   xmlns:inkscape="http://www.inkscape.org/namespaces/inkscape"
   xmlns:sodipodi="http://sodipodi.sourceforge.net/DTD/sodipodi-0.dtd"
   xmlns:xlink="http://www.w3.org/1999/xlink"
   xmlns="http://www.w3.org/2000/svg"
   xmlns:svg="http://www.w3.org/2000/svg">
  <sodipodi:namedview
     id="namedview24"
     pagecolor="#ffffff"
     bordercolor="#666666"
     borderopacity="1.0"
     inkscape:showpageshadow="2"
     inkscape:pageopacity="0.0"
     inkscape:pagecheckerboard="0"
     inkscape:deskcolor="#d1d1d1"
     showgrid="false"
     inkscape:zoom="25.62"
     inkscape:cx="-2.0296643"
     inkscape:cy="16.783763"
     inkscape:window-width="3440"
     inkscape:window-height="1356"
     inkscape:window-x="0"
     inkscape:window-y="0"
     inkscape:window-maximized="1"
     inkscape:current-layer="svg22"
     inkscape:pageshadow="2" />
  <defs
     id="defs12">
    <linearGradient
       inkscape:collect="always"
       id="linearGradient917">
      <stop
         style="stop-color:#000000;stop-opacity:0.99607843"
         offset="0"
         id="stop913" />
      <stop
         style="stop-color:#353a3f;stop-opacity:0.99607843"
         offset="1"
         id="stop915" />
    </linearGradient>
    <linearGradient
       id="linearGradient1005-3-3"
       x1="5.2535"
       x2="9.3823996"
       y1="15.383"
       y2="2.9421"
       gradientTransform="matrix(0.99999,0,0,0.99999,1.632,-0.61743)"
       gradientUnits="userSpaceOnUse">
      <stop
         stop-color="#fa8200"
         offset="0"
         id="stop2" />
      <stop
         stop-color="#ff9600"
         offset=".36953"
         id="stop4" />
      <stop
         stop-color="#ffb400"
         offset="1"
         id="stop6" />
    </linearGradient>
    <filter
       id="filter4014"
       x="-0.062499933"
       y="-0.057692993"
       width="1.1249999"
       height="1.115386"
       color-interpolation-filters="sRGB">
      <feGaussianBlur
         stdDeviation="1.093751"
         id="feGaussianBlur9" />
    </filter>
    <linearGradient
       inkscape:collect="always"
       xlink:href="#linearGradient3487"
       id="linearGradient3403"
       gradientUnits="userSpaceOnUse"
       x1="6.9491749"
       y1="4.5549412"
       x2="11.215498"
       y2="59.052471" />
    <linearGradient
       id="linearGradient3487">
      <stop
         style="stop-color:#32373c;stop-opacity:1"
         offset="0"
         id="stop3481" />
      <stop
         id="stop3483"
         offset="0.36804965"
         style="stop-color:#1a1a1a;stop-opacity:1" />
      <stop
         style="stop-color:#31363b;stop-opacity:1"
         offset="1"
         id="stop3485" />
    </linearGradient>
    <linearGradient
       inkscape:collect="always"
       xlink:href="#linearGradient20604"
       id="linearGradient20558"
       gradientUnits="userSpaceOnUse"
       x1="25.802212"
       y1="20.373846"
       x2="25.111048"
       y2="58.912758" />
    <linearGradient
       id="linearGradient20604">
      <stop
         id="stop20598"
         offset="0"
         style="stop-color:#3d3d3d;stop-opacity:1" />
      <stop
         style="stop-color:#000000;stop-opacity:1"
         offset="0.61772454"
         id="stop20600" />
      <stop
         id="stop20602"
         offset="1"
         style="stop-color:#3d3d3d;stop-opacity:1" />
    </linearGradient>
    <filter
       inkscape:collect="always"
       style="color-interpolation-filters:sRGB"
       id="filter20720"
       x="-0.017024755"
       y="-0.016457183"
       width="1.0340491"
       height="1.0329144">
      <feGaussianBlur
         inkscape:collect="always"
         stdDeviation="0.14745661"
         id="feGaussianBlur20722" />
    </filter>
    <linearGradient
       gradientTransform="translate(0.36067797,-0.13016949)"
       xlink:href="#linearGradient4555"
       id="linearGradient4557"
       x1="43.499737"
       y1="64.011795"
       x2="44.141731"
       y2="0.30621234"
       gradientUnits="userSpaceOnUse" />
    <linearGradient
       id="linearGradient4555">
      <stop
         style="stop-color:#141618;stop-opacity:1"
         offset="0"
         id="stop4551" />
      <stop
         id="stop4559"
         offset="0.51820582"
         style="stop-color:#686868;stop-opacity:1" />
      <stop
         style="stop-color:#31363b;stop-opacity:1"
         offset="1"
         id="stop4553" />
    </linearGradient>
    <filter
       style="color-interpolation-filters:sRGB"
       id="filter4601"
       x="-0.030244762"
       width="1.0604895"
       y="-0.030100647"
       height="1.0602013">
      <feGaussianBlur
         stdDeviation="0.014790289"
         id="feGaussianBlur4603" />
    </filter>
    <linearGradient
       inkscape:collect="always"
       xlink:href="#linearGradient917"
       id="linearGradient919"
       x1="7.400631"
       y1="41.743092"
       x2="33.063145"
       y2="7.1074457"
       gradientUnits="userSpaceOnUse"
       gradientTransform="matrix(0.43998684,0,0,0.43998684,0.42408031,0.35429787)" />
    <linearGradient
       id="d"
       gradientUnits="userSpaceOnUse"
       x1="16"
       x2="16"
       y1="30"
       y2="2">
      <stop
         offset="0"
         stop-color="#173f4f"
         id="stop17" />
      <stop
         offset="1"
         stop-color="#2f5361"
         id="stop19" />
    </linearGradient>
    <linearGradient
       id="e"
       gradientUnits="userSpaceOnUse"
       x1="21.923"
       x2="23.538"
       xlink:href="#a"
       y1="22.462"
       y2="24.077" />
    <linearGradient
       id="a">
      <stop
         offset="0"
         stop-color="#292c2f"
         id="stop32" />
      <stop
         offset="1"
         stop-opacity="0"
         id="stop34" />
    </linearGradient>
    <linearGradient
       id="f"
       gradientUnits="userSpaceOnUse"
       x1="28.385"
       x2="28.385"
       xlink:href="#c"
       y1="27.846001"
       y2="3.615" />
    <linearGradient
       id="c">
      <stop
         offset="0"
         stop-color="#bf4231"
         id="stop22" />
      <stop
         offset="1"
         stop-color="#e05e4c"
         id="stop24" />
    </linearGradient>
    <linearGradient
       id="g"
       gradientUnits="userSpaceOnUse"
       x1="28.385"
       x2="28.385"
       xlink:href="#b"
       y1="27.846001"
       y2="3.615" />
    <linearGradient
       id="b">
      <stop
         offset="0"
         stop-color="#eff0f1"
         id="stop27" />
      <stop
         offset="1"
         stop-color="#fcfcfc"
         id="stop29" />
    </linearGradient>
    <linearGradient
       id="h"
       gradientUnits="userSpaceOnUse"
       x1="9.5380001"
       x2="23"
       xlink:href="#a"
       y1="10.615"
       y2="24.077" />
    <linearGradient
       id="i"
       gradientUnits="userSpaceOnUse"
       x1="12.769"
       x2="25.691999"
       xlink:href="#a"
       y1="7.3850002"
       y2="20.308001" />
    <linearGradient
       id="j"
       gradientUnits="userSpaceOnUse"
       x1="32"
       x2="32"
       xlink:href="#b"
       y1="54"
       y2="9" />
    <linearGradient
       id="k"
       gradientUnits="userSpaceOnUse"
       x1="32"
       x2="32"
       xlink:href="#c"
       y1="54"
       y2="9" />
    <linearGradient
       id="l"
       gradientUnits="userSpaceOnUse"
       x1="37"
       x2="37"
       y1="46"
       y2="38">
      <stop
         offset="0"
         stop-color="#be4434"
         id="stop5" />
      <stop
         offset=".25"
         stop-color="#c44837"
         id="stop7" />
      <stop
         offset="1"
         stop-color="#cb4c3b"
         id="stop9" />
    </linearGradient>
    <linearGradient
       id="m"
       gradientUnits="userSpaceOnUse"
       x1="20.308001"
       x2="24.077"
       xlink:href="#a"
       y1="19.231001"
       y2="23" />
  </defs>
  <rect
     style="display:inline;fill:url(#linearGradient919);fill-opacity:1;fill-rule:evenodd;stroke:none;stroke-width:0.408229;stroke-linejoin:round;stroke-miterlimit:7.8"
     id="rect1192"
     width="18.516672"
     height="18.792765"
     x="1.8157192"
     y="1.6823937"
     ry="0"
     inkscape:label="arriere" />
  <g
     id="g897"
     transform="matrix(0.66790389,0,0,0.66790389,2.7700013,-0.00525552)">
    <path
       d="M 16,2 C 12.59,3.806 9.18,4.544 5.77,5.23 V 18.693 C 5.77,22.463 11.296,27.611 16,30 20.704,27.611 26.23,22.463 26.23,18.693 V 5.231 C 22.82,4.544 19.41,3.806 16,2 Z"
       fill="url(#d)"
       id="path37"
       style="fill:url(#d)" />
    <g
       stroke-width="0.538"
       id="g49">
      <path
         d="m 24.615,6.308 -14.164,17.395 6.036,6.035 c 4.59,-2.485 9.744,-7.404 9.744,-11.045 V 7.923 Z"
         fill="url(#e)"
         opacity="0.2"
         id="path39"
         style="fill:url(#e)" />
      <path
         d="m 20.752,5.419 -9.487,18.974 c 1.473,1.373 3.127,2.636 4.735,3.453 3.98,-2.021 8.615,-6.503 8.615,-9.692 V 6.308 A 61.098,61.098 0 0 1 20.752,5.419 Z"
         fill="url(#f)"
         id="path41"
         style="fill:url(#f)" />
      <path
         d="M 16,3.615 C 13.114,5.144 10.27,5.727 7.385,6.308 v 11.846 c 0,1.9 1.707,4.215 3.88,6.24 L 20.752,5.419 C 19.172,4.993 17.592,4.459 16,3.615 Z"
         fill="url(#g)"
         id="path43"
         style="fill:url(#g)" />
      <path
         d="m 11.692,6.308 -4.307,8.615 11.273,11.273 a 22.917,22.917 0 0 0 2.348,-1.96 L 20.308,23.538 16.538,16 Z"
         fill="url(#h)"
         opacity="0.2"
         id="path45"
         style="fill:url(#h)" />
      <path
         d="m 13.846,6.308 6.462,17.23 4.307,-8.615 h -2.153 z"
         fill="url(#i)"
         opacity="0.2"
         id="path47"
         style="fill:url(#i)" />
    </g>
    <g
       stroke-width="1.857"
       id="g57">
      <path
         d="m 24,14 16,32 8,-16 h -4 l -1,2 H 37 L 28,14 Z m 14,20 h 4 l -2,4 z"
         fill="url(#j)"
         transform="matrix(0.53846,0,0,0.53846,-1.23,-1.23)"
         id="path51"
         style="fill:url(#j)" />
      <path
         d="m 24,14 -8,16 h 4 l 1,-2 h 6 l 8.5,17 h 4 z m 0,8 2,4 h -4 z"
         fill="url(#k)"
         transform="matrix(0.53846,0,0,0.53846,-1.23,-1.23)"
         id="path53"
         style="fill:url(#k)" />
      <path
         d="m 32,38 4,8 h 4 l -4,-8 z"
         fill="url(#l)"
         transform="matrix(0.53846,0,0,0.53846,-1.23,-1.23)"
         id="path55"
         style="fill:url(#l)" />
    </g>
    <path
       d="m 24.615,14.923 -4.307,8.615 1.947,1.948 c 2.161,-2.093 3.78,-4.428 3.959,-6.428 a 4.38,4.38 0 0 0 0.017,-0.365 v -2.155 z"
       fill="url(#m)"
       opacity="0.2"
       id="path59"
       style="fill:url(#m)" />
    <path
       d="m 5.77,17.693 v 1 c 0,3.77 5.526,8.918 10.23,11.307 4.704,-2.389 10.23,-7.537 10.23,-11.307 v -1 C 26.23,21.463 20.704,26.611 16,29 11.296,26.611 5.77,21.463 5.77,17.693 Z"
       fill="#232629"
       opacity="0.2"
       id="path61" />
  </g>
  <path
     style="display:inline;mix-blend-mode:normal;fill:url(#linearGradient3403);fill-opacity:1;stroke:url(#linearGradient20558);stroke-width:1.16242;stroke-linecap:butt;stroke-linejoin:round;stroke-miterlimit:4;stroke-dasharray:none;stroke-opacity:1;filter:url(#filter20720)"
     d="M 4.7043071,3.9814882 4.6913695,60.80196 H 58.59546 l 1.022155,-2.866369 c 0,0 -23.87537,0.766388 -32.844441,-4.140386 C 16.257548,48.042344 11.401114,4.0978197 11.401114,4.0978197 Z"
     id="path1686"
     sodipodi:nodetypes="ccccscc"
     transform="matrix(0.33081717,0,0,0.33081717,0.46794905,0.36524754)"
     inkscape:label="folder" />
  <rect
     style="display:inline;fill:none;fill-opacity:1;stroke:url(#linearGradient4557);stroke-width:3.71366;stroke-linejoin:round;stroke-miterlimit:7.8;stroke-dasharray:none;stroke-opacity:0.995146;filter:url(#filter4601)"
     id="rect4539"
     width="62.567089"
     height="62.866646"
     x="1.0323594"
     y="0.59551275"
     ry="6.2447233"
     rx="5.8029528"
     transform="matrix(0.30990382,0,0,0.30927216,1.0237756,1.0337284)"
     inkscape:label="contour" />
</svg>
